X:1
T:Title
%%score { ( 1 3 ) | 2 }
L:1/8
M:4/4
K:D
V:1 treble nm="Grand Piano"
V:3 treble 
V:2 bass 
V:1
 z4 z2[Q:1/4=108] [B,B]2 | [D,B,D]2 [E,B,E]2[K:treble] [F,B,F]2 [G,B,G]2 | %2
 [G,=CG][F,CF][F,CF][=F,C=F] [^F,C^F]2 =c2 | D2 E2 F2 E2 | [B,E][B,D][B,D][^A,C] [B,D]2 [B,B]2 | %5
 [B,D]2 [B,E]2 [DF]2 [DG]2 | [DG][DF][DF][D=F] [D^F]2 [DB]2 | [CA]4 [Ge]4 | %8
[M:5/8] [DFd]-[DFd]- [DFd]3 |[M:3/8] z3 |[M:4/4] [B,DB]2 [B,DB]2 [B,DB]2 ^AB | %11
 d2- [=CDFd-]2 [CDFd]2 [CDFA]2 | d2- [=CDFd-]2 [CDFd]2 [CDFA]2 | d2- [DGBd-]2 [DGBd]B^AB | %14
 [^Ge]4 [GB]B^AB | e4 =ccBA | [Gd]4 [FAd]4 |[M:3/4] [B,DG]6 |] %18
V:2
 z4 z2 [G,,D,]2 | G,,2 G,,2 G,,2 G,,2 | A,,A,,A,,A,, A,,2 [D,F,=C]2 | %3
 [D,F,=C]2 [D,G,C]2 [D,A,C]2 [D,F,C]2 | [G,,G,][G,,G,][G,,G,][G,,E,] [G,,D,]2 [G,,D,]2 | %5
 [G,,D,]2 [G,,E,]2 [B,,F,]2 [B,,G,]2 | [A,,A,][A,,A,][A,,A,][A,,^G,] [A,,A,]2 [A,,F,]2 | %7
 [A,,G,]4 [A,C]4 |[M:5/8] D,-D,- D,3 |[M:3/8] DCD |[M:4/4] [G,,D,]2 [D,,D,]2 [G,,D,]2 [D,,D,]2 | %11
 [A,,D,]2 [D,,D,]2 [A,,D,]2 [D,,D,]2 | [A,,D,]2 [D,,D,]2 [A,,D,]2 [D,,D,]2 | %13
 [G,,D,]2 [D,,D,]2 .[G,,D,]2 z2 | [E,B,E]4 .[E,DE]2 z2 | [A,=CEA]4 .[A,CE]2 z2 | %16
 [D,B,D]4 [D,=CD]4 |[M:3/4] [G,,G,]6 |] %18
V:3
 x8 | x4[K:treble] x4 | x8 | x8 | x8 | x8 | x8 | x8 |[M:5/8] x5 |[M:3/8] x3 |[M:4/4] z4 z2 [B,D]2 | %11
 [=CDF]2 z2 z4 | [=CDF]2 z2 z4 | [DGB]2 z2 z4 | x8 | x8 | x8 |[M:3/4] x6 |] %18

